svg/fluentui-system-icons/ic_fluent_arrow_hook_down_left_24_filled.svg

<svg width="24" height="24" viewBox="0 0 24 24" fill="none" xmlns="http://www.w3.org/2000/svg">
<path d="M7 5C7 4.44772 7.44772 4 8 4H13C15.2424 4 17.0109 4.77783 18.2179 6.0226C19.4136 7.25563 20 8.88708 20 10.5C20 12.1129 19.4136 13.7444 18.2179 14.9774C17.0109 16.2222 15.2424 17 13 17H8.41421L10.4571 19.0429C10.8476 19.4334 10.8476 20.0666 10.4571 20.4571C10.0666 20.8476 9.43342 20.8476 9.04289 20.4571L5.29289 16.7071C4.90237 16.3166 4.90237 15.6834 5.29289 15.2929L9.04289 11.5429C9.43342 11.1524 10.0666 11.1524 10.4571 11.5429C10.8476 11.9334 10.8476 12.5666 10.4571 12.9571L8.41421 15H13C14.7576 15 15.9892 14.4028 16.7821 13.5851C17.5864 12.7556 18 11.6371 18 10.5C18 9.36292 17.5864 8.24437 16.7821 7.4149C15.9891 6.59717 14.7576 6 13 6H8C7.44772 6 7 5.55228 7 5Z" fill="#212121"/>
</svg>

<svg xmlns="http://www.w3.org/2000/svg" width="24" height="24"><path d="M7 5a1 1 0 0 1 1-1h5c2.242 0 4.01.778 5.218 2.023C19.414 7.256 20 8.887 20 10.5c0 1.613-.586 3.244-1.782 4.477C17.01 16.222 15.242 17 13 17H8.414l2.043 2.043a1 1 0 0 1-1.414 1.414l-3.75-3.75a1 1 0 0 1 0-1.414l3.75-3.75a1 1 0 0 1 1.414 1.414L8.414 15H13c1.758 0 2.99-.597 3.782-1.415.804-.83 1.218-1.948 1.218-3.085s-.414-2.256-1.218-3.085C15.99 6.597 14.758 6 13 6H8a1 1 0 0 1-1-1Z"/></svg>
